build/system/CameraOutline.svg

<svg xmlns="http://www.w3.org/2000/svg" fill="none" viewBox="0 0 24 24" focusable="false"><path d="M0 0H24V24H0z"/><path fill="#74767B" fill-rule="evenodd" d="M7.65236 5.96229L6 5.96229C4.34315 5.96229 3 7.30543 3 8.96229L3 16.9623C3 18.6191 4.34315 19.9623 6 19.9623L18 19.9623C19.6569 19.9623 21 18.6191 21 16.9623L21 8.96229C21 7.30543 19.6569 5.96229 18 5.96229L16.3476 5.96229C15.9111 4.84519 14.8242 4.05389 13.5524 4.05389L10.4476 4.05389C9.17585 4.05389 8.08894 4.84519 7.65236 5.96229ZM15.46 7.26229L15.1368 6.4355C14.8886 5.80024 14.271 5.35389 13.5524 5.35389L10.4476 5.35389C9.72898 5.35389 9.11144 5.80024 8.86317 6.4355L8.54005 7.26229L6 7.26229C5.06112 7.26229 4.3 8.0234 4.3 8.96229L4.3 16.9623C4.3 17.9012 5.06112 18.6623 6 18.6623L18 18.6623C18.9389 18.6623 19.7 17.9012 19.7 16.9623L19.7 8.96229C19.7 8.0234 18.9389 7.26229 18 7.26229L15.46 7.26229ZM16.2643 12.8831C16.2643 15.2303 14.3615 17.1331 12.0143 17.1331C9.66712 17.1331 7.76433 15.2303 7.76433 12.8831C7.76433 10.5359 9.66712 8.63312 12.0143 8.63312C14.3615 8.63312 16.2643 10.5359 16.2643 12.8831ZM16.6261 9.63312C16.6261 9.0833 17.0719 8.63312 17.6217 8.63312C18.1715 8.63312 18.6172 9.0833 18.6172 9.63312C18.6172 10.1829 18.1715 10.6331 17.6217 10.6331C17.0719 10.6331 16.6261 10.1829 16.6261 9.63312ZM14.9643 12.8831C14.9643 14.5124 13.6436 15.8331 12.0143 15.8331C10.3851 15.8331 9.06433 14.5124 9.06433 12.8831C9.06433 11.2539 10.3851 9.93312 12.0143 9.93312C13.6436 9.93312 14.9643 11.2539 14.9643 12.8831Z"/></svg>

<svg xmlns="http://www.w3.org/2000/svg" fill="none" viewBox="0 0 24 24" focusable="false"><path fill="#74767B" fill-rule="evenodd" d="M7.65 5.96H6c-1.66 0-3 1.34-3 3v8c0 1.65 1.34 3 3 3h12c1.65 0 3-1.35 3-3v-8c0-1.66-1.35-3-3-3h-1.66a2.99 2.99 0 0 0-2.79-1.91h-3.11c-1.27 0-2.36.79-2.79 1.91m7.81 1.3-.33-.83c-.25-.63-.86-1.08-1.58-1.08h-3.11c-.72 0-1.33.45-1.58 1.08l-.32.83H6c-.94 0-1.71.76-1.71 1.7v8c0 .94.77 1.7 1.71 1.7h12c.93 0 1.7-.76 1.7-1.7v-8c0-.94-.77-1.7-1.7-1.7zm-3.45 9.87c2.35 0 4.25-1.9 4.25-4.25s-1.9-4.25-4.25-4.25-4.25 1.9-4.25 4.25 1.9 4.25 4.25 4.25m4.61-7.5c0-.55.45-1 1-1s.99.45.99 1-.44 1-.99 1-1-.45-1-1m-4.61 6.2a2.949 2.949 0 1 0 0-5.9 2.949 2.949 0 1 0 0 5.9"/></svg>
